icon/pk/power-supply.svg

<svg viewBox="0 0 48 48" fill="none" xmlns="http://www.w3.org/2000/svg" height="1em" width="1em">
  <path d="M32.2965 6H15.7035C15.2815 6 14.9049 6.26493 14.7623 6.66214L8.09221 25.2431C8.03184 25.4113 8.01763 25.5926 8.05107 25.7681L9.84516 35.1871C9.935 35.6588 10.3474 36 10.8275 36H37.1725C37.6526 36 38.065 35.6588 38.1548 35.1871L39.9489 25.7681C39.9824 25.5926 39.9682 25.4113 39.9078 25.2431L33.2377 6.66214C33.0951 6.26493 32.7185 6 32.2965 6Z" fill="#2F88FF" stroke="black" stroke-width="4" stroke-linecap="round" stroke-linejoin="round"/>
  <path d="M24 36V44" stroke="black" stroke-width="4" stroke-linecap="round" stroke-linejoin="round"/>
  <path d="M24 12V18" stroke="white" stroke-width="4" stroke-linecap="round" stroke-linejoin="round"/>
  <path d="M16.5 23.4019L19.5 28.598" stroke="white" stroke-width="4" stroke-linecap="round" stroke-linejoin="round"/>
  <path d="M31.5 23.4019L28.5 28.598" stroke="white" stroke-width="4" stroke-linecap="round" stroke-linejoin="round"/>
</svg>

<svg width="48" height="48" fill="none" xmlns="http://www.w3.org/2000/svg"><path d="M32.297 6H15.704a1 1 0 0 0-.942.662l-6.67 18.581a1 1 0 0 0-.04.525l1.793 9.42a1 1 0 0 0 .982.812h26.346a1 1 0 0 0 .982-.813l1.794-9.419a1 1 0 0 0-.041-.525l-6.67-18.58A1 1 0 0 0 32.297 6Z" fill="#2F88FF" stroke="#000" stroke-width="4" stroke-linecap="round" stroke-linejoin="round"/><path d="M24 36v8" stroke="#000" stroke-width="4" stroke-linecap="round" stroke-linejoin="round"/><path d="M24 12v6M16.5 23.402l3 5.196M31.5 23.402l-3 5.196" stroke="#fff" stroke-width="4" stroke-linecap="round" stroke-linejoin="round"/></svg>
